X:1
T:Come Back to the Farm
M:6/4
L:1/4
K:C
 G E G c2 e| c3- c2 B| B A d d c A| G3- G2 G| G E G c2 G| A F A c2 A|\
 G E c D E F| E3- E2 E| D d d B A B| c3 G2 c| c3/2 d/2 c A G E| D3- D2 G|\
 G E G c2 G| A F A c2 A| G E c D E F| E3- E2 c3/4 B/4| A A B c c d|\
 e3 E2c/2-B/2| A A B c d e| d3- d2 G| G E G c2 G| A F A c2 A| G E c D E F|\
 G3- G2 z|
